filter3.CUBE
TITLE "Generated by Resolve"
LUT_3D_SIZE 5
0 0.022446 0
0.126802 0.0379797 0
0.389105 0.0330053 0
0.661524 0.0310521 0
0.95169 0.027039 0
0.0145418 0.170932 0
0.179522 0.20351 0
0.434958 0.238437 0
0.700175 0.243992 0
0.973327 0.25481 0
0.191241 0.347127 0
0.281376 0.373449 0
0.451362 0.461204 0
0.721889 0.504585 0
0.987732 0.506264 0
0.366812 0.548028 0.16466
0.447608 0.566644 0.128313
0.547646 0.639216 0.0350652
0.73286 0.733684 0
0.996735 0.75671 0
0.523217 0.796963 0.386389
0.603174 0.823301 0.373663
0.708888 0.872175 0.320729
0.816632 0.979782 0.0944533
0.999985 1 0
0 0.0460365 0.0134737
0.108614 0.0515297 0.0598611
0.380499 0.0277409 0.0874189
0.658473 0.0207523 0.121813
0.947097 0.018143 0.15584
0 0.192996 0.10486
0.126299 0.214832 0.114534
0.438651 0.227924 0.142596
0.706676 0.223316 0.152224
0.981567 0.220691 0.132265
0.0754864 0.353155 0.106889
0.220432 0.376822 0.0967575
0.444236 0.461494 0.125887
0.724346 0.503426 0.191058
0.990921 0.502632 0.172152
0.318975 0.54786 0.210544
0.418662 0.569665 0.191455
0.543801 0.633478 0.136904
0.734234 0.736248 0.129824
0.997223 0.755627 0.194797
0.500648 0.800305 0.43331
0.58526 0.826307 0.422019
0.704448 0.873915 0.382147
0.8206 0.977325 0.180056
1 1 0.00854505
0 0.0922866 0.120378
0.0859846 0.105638 0.190738
0.309331 0.112871 0.20676
0.607385 0.0579232 0.288548
0.921767 0.0234684 0.363714
0 0.226261 0.228641
0.0383459 0.253254 0.267948
0.370642 0.255879 0.294911
0.670695 0.224933 0.347356
0.974853 0.208804 0.394385
0 0.421408 0.343496
0.0899214 0.4383 0.357778
0.403052 0.467552 0.373739
0.716472 0.49987 0.435554
0.993713 0.4963 0.445563
0.17525 0.581094 0.37557
0.285084 0.593896 0.374609
0.473121 0.623941 0.37435
0.719173 0.726146 0.414755
0.997772 0.753872 0.467323
0.427527 0.811749 0.509255
0.519326 0.834791 0.50457
0.65507 0.87805 0.478202
0.810544 0.96997 0.295445
1 1 0.406165
0.00764477 0.141833 0.213947
0.0877241 0.163363 0.296345
0.300893 0.182101 0.337285
0.508247 0.196277 0.35906
0.830594 0.14052 0.497795
0 0.262455 0.321019
0.0379034 0.289281 0.357137
0.324254 0.321004 0.431205
0.56408 0.308309 0.431128
0.879377 0.303975 0.55317
0 0.470527 0.492103
0.04654 0.494347 0.521355
0.340917 0.519051 0.542916
0.642725 0.527352 0.566522
0.968292 0.503349 0.643931
0.143389 0.679072 0.615259
0.222812 0.691646 0.625895
0.408911 0.701106 0.63064
0.677562 0.730709 0.646372
0.99707 0.758144 0.705257
0.354788 0.882704 0.692851
0.416571 0.901289 0.697322
0.491035 0.934462 0.682445
0.737789 0.973007 0.682536
1 1 0.735546
0.0583352 0.198856 0.309255
0.130312 0.230076 0.365301
0.310521 0.260334 0.464515
0.51664 0.289494 0.489738
0.697261 0.307683 0.521614
0.0356909 0.309697 0.408911
0.107042 0.336721 0.443137
0.305135 0.379995 0.521324
0.554253 0.399084 0.56321
0.745953 0.419059 0.585229
0.0043946 0.501808 0.585626
0.107485 0.519524 0.607446
0.305348 0.54934 0.639109
0.588373 0.578012 0.684749
0.831205 0.581323 0.706264
0.154101 0.724315 0.75993
0.220447 0.742336 0.781338
0.390875 0.765759 0.804364
0.603342 0.78941 0.829862
0.902235 0.798489 0.849607
0.151797 0.986862 0.937224
0.219791 1 0.955886
0.423529 1 0.973022
0.684428 1 0.984222
0.977401 1 1
