filter3.CUBE
TITLE "Generated by Resolve"
LUT_3D_SIZE 33
0 0.022446 0
0 0.0244144 0
0 0.0268406 0
0 0.0285039 0
0.0121309 0.0307622 0
0.0380713 0.0332189 0
0.0660258 0.0348669 0
0.0953384 0.036759 0
0.126802 0.0379797 0
0.159533 0.0383764 0
0.191562 0.038468 0
0.224384 0.037705 0
0.257328 0.0368505 0
0.290394 0.0360266 0
0.323323 0.0351415 0
0.356268 0.0337072 0
0.389105 0.0330053 0
0.422156 0.032517 0
0.455314 0.0319829 0
0.488685 0.0317693 0
0.522499 0.0314488 0
0.556512 0.0314183 0
0.591058 0.03122 0
0.626017 0.0311589 0
0.661524 0.0310521 0
0.697261 0.0311131 0
0.733349 0.0307317 0
0.769619 0.0303807 0
0.806073 0.0298161 0
0.842466 0.0292821 0
0.878965 0.0285954 0
0.91545 0.0280308 0
0.95169 0.027039 0
0 0.0361486 0
0 0.0386511 0
0 0.0407874 0
0 0.043183 0
0.0200351 0.0454414 0
0.0466468 0.0479744 0
0.0749981 0.049958 0
0.105013 0.0521096 0
0.136584 0.0535744 0
0.168338 0.0547951 0
0.200168 0.0545052 0
0.23267 0.0545968 0
0.265461 0.0538033 0
0.298329 0.0528267 0
0.331167 0.0517586 0
0.363989 0.0512093 0
0.396628 0.0500191 0
0.429618 0.0495613 0
0.462623 0.049485 0
0.495933 0.049546 0
0.529625 0.0496376 0
0.563607 0.049836 0
0.59794 0.0503243 0
0.632715 0.0507515 0
0.667948 0.0512093 0
0.703471 0.0516518 0
0.739406 0.0519112 0
0.775296 0.0522011 0
0.811353 0.0523384 0
0.84741 0.0524453 0
0.883497 0.052491 0
0.919738 0.0523537 0
0.955657 0.0521096 0
0 0.0526436 0
0 0.055436 0
0 0.0571908 0
0.0027924 0.0602274 0
0.0282139 0.0628672 0
0.0553597 0.0658122 0
0.0841077 0.0689555 0
0.114199 0.0714122 0
0.145296 0.0733043 0
0.176669 0.0745251 0
0.208423 0.0749371 0
0.240696 0.074876 0
0.27303 0.0743877 0
0.30547 0.0737469 0
0.338155 0.0728771 0
0.370611 0.0720836 0
0.403311 0.0716564 0
0.435996 0.071046 0
0.468971 0.0706951 0
0.502083 0.0706035 0
0.535653 0.070985 0
0.569512 0.0712444 0
0.603616 0.0719768 0
0.638148 0.0724651 0
0.67303 0.0734722 0
0.708339 0.0740978 0
0.743923 0.0748455 0
0.779599 0.0756847 0
0.815534 0.0762188 0
0.851514 0.0769055 0
0.887312 0.0775616 0
0.923445 0.0779126 0
0.959182 0.0782025 0
0 0.0713664 0
0 0.0740826 0
0 0.0762951 0
0.00985733 0.0793164 0
0.0362249 0.0825208 0
0.0639353 0.0862745 0
0.0927749 0.0893263 0
0.122576 0.0920882 0
0.152911 0.094316 0
0.1841 0.0955825 0
0.215793 0.0965896 0
0.24773 0.0968643 0
0.279942 0.0968643 0
0.312154 0.0963607 0
0.344594 0.0958419 0
0.377096 0.0953536 0
0.409613 0.0947433 0
0.442252 0.0944076 0
0.475074 0.0941024 0
0.50808 0.0940414 0
0.541421 0.0942397 0
0.575021 0.0947738 0
0.608988 0.0953231 0
0.64329 0.0962387 0
0.677989 0.0972152 0
0.712901 0.0982528 0
0.74815 0.0993362 0
0.783612 0.10045 0
0.819242 0.101564 0
0.854932 0.102708 0
0.890578 0.103731 0
0.92639 0.104753 0
0.961883 0.105531 0
0 0.0917067 0
0 0.0938277 0
0 0.0962692 0
0.0182498 0.098558 0
0.0439612 0.102342 0
0.0720836 0.106615 0
0.100618 0.110216 0
0.129824 0.113375 0
0.159854 0.116106 0
0.190982 0.118334 0
0.222675 0.119585 0
0.254337 0.120348 0
0.286503 0.120836 0
0.318517 0.120821 0
0.350774 0.120668 0
0.3832 0.120211 0
0.415579 0.119997 0
0.448142 0.119692 0
0.480934 0.119448 0
0.513832 0.119295 0
0.547173 0.119677 0
0.580667 0.12015 0
0.614466 0.120912 0
0.648554 0.121691 0
0.682933 0.122911 0
0.717693 0.124056 0
0.752651 0.125399 0
0.787839 0.126818 0
0.823209 0.128298 0
0.858579 0.129747 0
0.893965 0.131167 0
0.929488 0.132525 0
0.964706 0.1337 0
0 0.112062 0
0 0.11397 0
0.00477607 0.115679 0
0.0281834 0.118303 0
0.0523995 0.120958 0
0.0783856 0.125277 0
0.106828 0.130877 0
0.136126 0.135622 0
0.166293 0.139315 0
0.197116 0.142214 0
0.228473 0.144228 0
0.260243 0.145754 0
0.292317 0.1467 0
0.324437 0.147158 0
0.356634 0.147463 0
0.388754 0.147295 0
0.421195 0.147234 0
0.453758 0.147127 0
0.486366 0.146975 0
0.519356 0.147097 0
0.552529 0.147448 0
0.585885 0.14789 0
0.619608 0.148669 0
0.653574 0.149523 0
0.687892 0.150744 0
0.722423 0.152026 0
0.757229 0.15346 0
0.792157 0.15494 0
0.827207 0.156573 0
0.862364 0.158297 0
0.89749 0.159915 0
0.932708 0.161578 0
0.967636 0.162966 0
0 0.132296 0
0 0.133822 0
0.0174563 0.135332 0
0.0395514 0.137453 0
0.0626535 0.140307 0
0.0864881 0.144137 0
0.112444 0.149645 0
0.141344 0.156664 0
0.171359 0.162585 0
0.202365 0.166964 0
0.233814 0.170214 0
0.2654 0.172442 0
0.297475 0.174182 0
0.329488 0.17528 0
0.361746 0.175891 0
0.393942 0.176333 0
0.426291 0.17644 0
0.458732 0.176577 0
0.491402 0.176638 0
0.5243 0.176852 0
0.55729 0.177172 0
0.590738 0.177768 0
0.624338 0.178485 0
0.658167 0.179385 0
0.692317 0.180575 0
0.726741 0.181796 0
0.761379 0.183276 0
0.796216 0.184833 0
0.831113 0.186496 0
0.86598 0.18819 0
0.900877 0.18999 0
0.935836 0.191714 0
0.970184 0.192874 0
0 0.151598 0
0.0128176 0.152819 0
0.0325017 0.154528 0
0.0527504 0.156771 0
0.07393 0.159915 0
0.0960403 0.16376 0
0.119677 0.168521 0
0.145998 0.175723 0
0.175479 0.184207 0
0.206592 0.191211 0
0.238285 0.19649 0
0.270176 0.200168 0
0.302052 0.202716 0
0.334112 0.204395 0
0.366323 0.205615 0
0.39855 0.206439 0
0.430869 0.207065 0
0.463294 0.207401 0
0.495933 0.207675 0
0.528725 0.208042 0
0.561791 0.208515 0
0.595071 0.209049 0
0.62858 0.209796 0
0.662379 0.210742 0
0.696437 0.211826 0
0.730724 0.213046 0
0.765225 0.214343 0
0.799893 0.215869 0
0.834638 0.217487 0
0.869383 0.21912 0
0.904051 0.220859 0
0.93875 0.222522 0
0.971771 0.223743 0
0.0145418 0.170932 0
0.0317388 0.172213 0
0.0493782 0.174029 0
0.0674144 0.176272 0
0.0866407 0.179477 0
0.106935 0.183749 0
0.128756 0.188846 0
0.152605 0.194766 0
0.179522 0.20351 0
0.20972 0.213428 0
0.241566 0.2215 0
0.273869 0.227481 0
0.306264 0.231632 0
0.338293 0.234318 0
0.370474 0.236133 0
0.402625 0.237446 0
0.434958 0.238437 0
0.467369 0.23917 0
0.499992 0.239719 0
0.532692 0.240192 0
0.565713 0.240772 0
0.598932 0.241367 0
0.632441 0.242084 0
0.666148 0.243 0
0.700175 0.243992 0
0.734356 0.24509 0
0.768734 0.246342 0
0.803281 0.247669 0
0.837919 0.249104 0
0.872465 0.25066 0
0.906981 0.252155 0
0.941466 0.253727 0
0.973327 0.25481 0
0.0369268 0.19086 0
0.0522621 0.192233 0
0.0676585 0.193866 0
0.0835737 0.196185 0
0.100633 0.199588 0
0.119051 0.203922 0
0.139254 0.209339 0
0.161303 0.215595 0
0.185458 0.222644 0
0.213107 0.2327 0
0.24419 0.243946 0
0.276585 0.25304 0
0.309224 0.25951 0
0.341909 0.264103 0
0.374289 0.267079 0
0.406409 0.26894 0
0.438682 0.270329 0
0.471046 0.271427 0
0.503578 0.272312 0
0.536278 0.272908 0
0.569253 0.273625 0
0.602472 0.274327 0
0.635874 0.275029 0
0.669612 0.275868 0
0.703578 0.276768 0
0.737697 0.277714 0
0.772015 0.278843 0
0.806424 0.279942 0
0.840925 0.281163 0
0.875364 0.282475 0
0.909697 0.283848 0
0.944015 0.285176 0
0.974945 0.286122 0
0.0597543 0.211185 0
0.0730297 0.212421 0
0.0867475 0.214221 0
0.100908 0.216663 0
0.115923 0.219974 0
0.132647 0.224277 0
0.151019 0.23006 0
0.17145 0.236667 0
0.193973 0.244007 0
0.218875 0.252262 0
0.247028 0.263661 0
0.278538 0.275792 0
0.311238 0.285344 0
0.344198 0.292256 0
0.377142 0.297169 0
0.409827 0.300526 0
0.442039 0.30248 0
0.474357 0.303929 0
0.506783 0.305058 0
0.539498 0.305959 0
0.572396 0.306767 0
0.605554 0.307485 0
0.638972 0.308156 0
0.672602 0.308919 0
0.706554 0.309697 0
0.740642 0.310552 0
0.774929 0.311437 0
0.809277 0.312413 0
0.843641 0.31342 0
0.877958 0.314488 0
0.912215 0.315633 0
0.946395 0.316701 0
0.976654 0.317494 0
0.0819409 0.232441 0
0.0940871 0.233875 0
0.106188 0.235584 0
0.11899 0.237736 0
0.132677 0.240818 0
0.147936 0.245274 0
0.164645 0.250889 0
0.183322 0.257725 0
0.204196 0.265507 0
0.227237 0.273899 0
0.252583 0.283207 0
0.281193 0.295659 0
0.312901 0.308278 0
0.345769 0.318196 0
0.378988 0.325475 0
0.412131 0.330556 0
0.445075 0.334066 0
0.477516 0.336187 0
0.509957 0.337682 0
0.542535 0.338766 0
0.575357 0.339742 0
0.608484 0.340551 0
0.641855 0.341299 0
0.675425 0.341955 0
0.709316 0.342626 0
0.743343 0.343313 0
0.777554 0.344076 0
0.811826 0.344839 0
0.846174 0.345663 0
0.880385 0.346532 0
0.91458 0.347417 0
0.948623 0.348272 0
0.978439 0.348898 0
0.10428 0.254398 0
0.114977 0.255665 0
0.12607 0.25745 0
0.137804 0.259556 0
0.150347 0.262486 0
0.164416 0.26659 0
0.179843 0.271931 0
0.196918 0.278782 0
0.216159 0.286809 0
0.237568 0.295735 0
0.260914 0.304997 0
0.286519 0.315251 0
0.315328 0.328237 0
0.347189 0.341192 0
0.380179 0.351324 0
0.413535 0.35877 0
0.446921 0.363973 0
0.480064 0.367544 0
0.512993 0.369909 0
0.545556 0.371374 0
0.578302 0.372488 0
0.611276 0.373388 0
0.644587 0.374136 0
0.678126 0.374792 0
0.711925 0.375448 0
0.745907 0.376028 0
0.780056 0.376623 0
0.814267 0.377234 0
0.848539 0.377874 0
0.882658 0.378561 0
0.916777 0.379232 0
0.950759 0.379889 0
0.980285 0.380316 0
0.125978 0.276753 0
0.136004 0.278187 0
0.146273 0.279942 0
0.157336 0.281895 0
0.169207 0.284642 0
0.1823 0.288548 0
0.196674 0.293614 0
0.212482 0.300191 0
0.23003 0.308171 0
0.249699 0.317296 0
0.271336 0.327199 0
0.294759 0.337011 0
0.32047 0.34789 0
0.349416 0.361303 0
0.381308 0.374319 0
0.414481 0.384512 0
0.447974 0.391928 0
0.48159 0.397284 0
0.515023 0.400946 0
0.548272 0.403357 0
0.581247 0.404898 0
0.61413 0.405966 0
0.647318 0.406806 0
0.68072 0.407492 0
0.714458 0.408072 0
0.748348 0.408606 0
0.782391 0.409079 0
0.816541 0.409537 0
0.850752 0.41004 0
0.884794 0.410529 0
0.918822 0.411063 0
0.952804 0.411521 0
0.982132 0.411841 0
0.147723 0.299825 0
0.157107 0.301137 0
0.167041 0.302937 0
0.177569 0.304784 0
0.188922 0.307469 0
0.201251 0.310933 0
0.214755 0.315648 0
0.229465 0.321874 0
0.24564 0.329686 0
0.263523 0.338811 0
0.283436 0.348913 0
0.305119 0.35938 0
0.32871 0.36968 0
0.354482 0.380926 0
0.383474 0.394583 0
0.415351 0.407416 0
0.448569 0.417578 0
0.482277 0.425055 0
0.516152 0.430381 0
0.549935 0.434058 0
0.583612 0.436545 0
0.616907 0.438132 0
0.650034 0.439124 0
0.68333 0.439902 0
0.71696 0.440497 0
0.750713 0.441001 0
0.784665 0.441382 0
0.818723 0.441779 0
0.852796 0.44213 0
0.886839 0.442512 0
0.920821 0.442847 0
0.954711 0.443168 0
0.984009 0.443305 0
0.16936 0.323262 0
0.178683 0.324727 0
0.188144 0.326345 0
0.198337 0.328206 0
0.209384 0.330739 0
0.22121 0.333913 0
0.234028 0.338216 0
0.247868 0.343969 0
0.262882 0.351339 0
0.279332 0.360327 0
0.29723 0.37055 0
0.31722 0.381369 0
0.338964 0.392248 0
0.36257 0.402716 0
0.388388 0.414298 0
0.417395 0.427832 0
0.449317 0.440513 0
0.482658 0.450584 0
0.516564 0.457969 0
0.550713 0.463233 0
0.584817 0.466911 0
0.618814 0.469413 0
0.652522 0.471 0
0.685985 0.472023 0
0.719417 0.472648 0
0.753048 0.473121 0
0.786908 0.473533 0
0.820859 0.473884 0
0.85481 0.474144 0
0.888731 0.474357 0
0.922652 0.474586 0
0.956527 0.474754 0
0.985885 0.474769 0
0.191241 0.347127 0
0.200229 0.348638 0
0.20972 0.350347 0
0.219577 0.352117 0
0.230289 0.354299 0
0.241856 0.357229 0
0.254093 0.361212 0
0.267231 0.366522 0
0.281376 0.373449 0
0.296574 0.381979 0
0.312978 0.391974 0
0.331044 0.403037 0
0.351049 0.414405 0
0.372763 0.425513 0
0.396429 0.436179 0
0.422278 0.447868 0
0.451362 0.461204 0
0.48336 0.473655 0
0.516793 0.483406 0
0.550958 0.49073 0
0.585382 0.495995 0
0.619837 0.49958 0
0.654047 0.502022 0
0.688106 0.503639 0
0.721889 0.504585 0
0.755459 0.505119 0
0.78912 0.505501 0
0.822904 0.505791 0
0.856764 0.505959 0
0.890578 0.506127 0
0.924392 0.506233 0
0.95819 0.506249 0
0.987732 0.506264 0
0.213291 0.371328 0.00463874
0.22211 0.372824 0.00178531
0.231479 0.374517 0
0.241199 0.376287 0
0.251728 0.378393 0
0.262943 0.381109 0
0.274846 0.38468 0
0.287419 0.389487 0
0.300771 0.395819 0
0.314992 0.403876 0
0.330144 0.41352 0
0.346593 0.42443 0
0.364691 0.436133 0
0.384695 0.447837 0
0.406546 0.459098 0
0.430259 0.469734 0
0.456214 0.481422 0
0.48542 0.494606 0
0.51751 0.506706 0
0.55111 0.516258 0
0.585489 0.52343 0
0.620127 0.528557 0
0.654734 0.532067 0
0.689265 0.534401 0
0.723598 0.535927 0
0.757626 0.536828 0
0.791318 0.537301 0
0.824948 0.537591 0
0.858671 0.537728 0
0.892393 0.537835 0
0.926085 0.53782 0
0.959625 0.537743 0
0.989532 0.537621 0
0.235508 0.395773 0.0233921
0.244236 0.397345 0.0197452
0.253391 0.398947 0.0162966
0.26302 0.400748 0.011902
0.27335 0.402762 0.00753796
0.284306 0.405371 0.00280766
0.295949 0.408591 0
0.308125 0.412909 0
0.320943 0.418662 0
0.33431 0.426154 0
0.348501 0.435294 0
0.363668 0.445914 0
0.380133 0.457557 0
0.39823 0.469657 0
0.418357 0.481605 0
0.440177 0.492775 0
0.464073 0.50341 0
0.490242 0.515129 0
0.5196 0.527993 0
0.551888 0.539742 0
0.585611 0.54905 0
0.620142 0.556008 0
0.654948 0.560983 0
0.689754 0.564385 0
0.724437 0.566552 0
0.758923 0.567956 0
0.793164 0.568765 0
0.826917 0.569131 0
0.860517 0.569314 0
0.894087 0.569329 0
0.927672 0.569314 0
0.961013 0.569146 0
0.991287 0.568963 0
0.25771 0.420401 0.0436561
0.266438 0.421942 0.0400092
0.275349 0.423636 0.0365911
0.284962 0.425498 0.0319524
0.295079 0.42742 0.0271458
0.305928 0.429831 0.0217594
0.317342 0.432868 0.0156252
0.329259 0.436774 0.00939956
0.341604 0.441947 0.00321965
0.354421 0.448737 0
0.367803 0.457298 0
0.381888 0.467475 0
0.396979 0.478859 0
0.413504 0.491173 0
0.431708 0.503685 0
0.451881 0.515618 0
0.474022 0.526757 0
0.498009 0.537316 0
0.524468 0.549004 0
0.554101 0.561517 0
0.586511 0.5729 0
0.620356 0.581842 0
0.655024 0.588586 0
0.689921 0.593408 0
0.724849 0.596536 0
0.759564 0.598581 0
0.794079 0.599771 0
0.828321 0.600427 0
0.862211 0.600687 0
0.895674 0.600702 0
0.929076 0.600626 0
0.962249 0.600473 0
0.992905 0.600183 0
0.279988 0.445319 0.0659037
0.288594 0.446952 0.0625772
0.29749 0.448676 0.058732
0.306889 0.450492 0.0543526
0.316915 0.452384 0.0493935
0.327672 0.454704 0.0435035
0.338888 0.457496 0.0369421
0.350545 0.461051 0.0301518
0.3626 0.465721 0.0226291
0.37499 0.471839 0.0152132
0.387869 0.479805 0.0074464
0.401144 0.489372 0.000534066
0.415152 0.50042 0
0.430213 0.512535 0
0.446738 0.525322 0
0.465171 0.538064 0
0.485496 0.54995 0
0.507866 0.560967 0
0.532204 0.571466 0
0.559014 0.583062 0
0.588937 0.595209 0
0.621469 0.606134 0
0.655406 0.614771 0
0.690059 0.62121 0
0.725048 0.625742 0
0.759915 0.628656 0
0.794629 0.630457 0
0.829068 0.631464 0
0.863188 0.631937 0
0.897002 0.631983 0
0.930373 0.631846 0
0.963394 0.631662 0
0.994385 0.631357 0
0.302022 0.470451 0.0892653
0.310628 0.472206 0.0860609
0.319417 0.47396 0.0826123
0.328756 0.475776 0.0783246
0.33872 0.47776 0.0734264
0.349325 0.479927 0.0675364
0.360372 0.482506 0.0610819
0.371923 0.485786 0.053727
0.383841 0.490043 0.0456703
0.396017 0.495659 0.037171
0.408331 0.502754 0.0283513
0.420996 0.511604 0.0195773
0.434241 0.522179 0.0110475
0.448264 0.534051 0.00337224
0.463416 0.546838 0
0.480095 0.55993 0
0.498665 0.572702 0
0.51928 0.584619 0
0.541924 0.595483 0
0.56669 0.606012 0
0.593973 0.617426 0
0.624155 0.629175 0
0.656779 0.639643 0
0.690791 0.647852 0
0.72546 0.653864 0
0.760281 0.658091 0
0.795071 0.660746 0
0.829618 0.662272 0
0.863874 0.66302 0
0.897749 0.663218 0
0.93135 0.663081 0
0.96437 0.662776 0
0.995789 0.662425 0
0.323857 0.495918 0.113619
0.332494 0.497765 0.110613
0.341253 0.49955 0.107317
0.350576 0.501411 0.103456
0.360433 0.503349 0.0986801
0.370871 0.505516 0.0932021
0.381857 0.508003 0.0867475
0.393317 0.511009 0.07953
0.405127 0.514931 0.0713207
0.417227 0.519997 0.0624704
0.429313 0.526467 0.0526589
0.44155 0.534539 0.0423743
0.454108 0.544305 0.032166
0.467308 0.555734 0.0224765
0.481346 0.568399 0.0132448
0.496574 0.581643 0.00512703
0.513466 0.594995 0
0.53225 0.607828 0
0.553201 0.619654 0
0.576364 0.630442 0
0.601633 0.64094 0
0.629328 0.652171 0
0.6598 0.663462 0
0.692561 0.67335 0
0.726543 0.681056 0
0.761074 0.686717 0
0.795758 0.690547 0
0.830259 0.692836 0
0.864546 0.694026 0
0.898482 0.694469 0
0.932067 0.694408 0
0.964996 0.694011 0
0.996857 0.693492 0
0.34548 0.521721 0.13872
0.354147 0.523659 0.136126
0.362951 0.525551 0.132998
0.372152 0.527459 0.129351
0.381979 0.529381 0.125063
0.392355 0.531548 0.119936
0.403281 0.53402 0.113863
0.414603 0.536843 0.107012
0.426352 0.540368 0.0990616
0.438407 0.544976 0.0901045
0.450416 0.550805 0.0799878
0.462531 0.558221 0.0690776
0.474754 0.567208 0.0576028
0.487205 0.577951 0.0459754
0.500328 0.590173 0.0346075
0.514412 0.603357 0.0236667
0.529839 0.617029 0.0142519
0.546899 0.630533 0.00563058
0.566049 0.643397 0
0.587472 0.655283 0
0.611185 0.66598 0
0.636957 0.676417 0
0.665217 0.687434 0
0.696086 0.698207 0
0.728847 0.707454 0
0.762753 0.71458 0
0.797086 0.719753 0
0.831403 0.72314 0
0.865583 0.725002 0
0.899413 0.72578 0
0.932982 0.725902 0
0.965621 0.725536 0
0.99704 0.724865 0
0.366812 0.548028 0.16466
0.375616 0.550118 0.162325
0.384405 0.552056 0.159533
0.393561 0.553918 0.156115
0.403357 0.555993 0.1523
0.413703 0.558099 0.147463
0.424582 0.56054 0.142061
0.435904 0.563302 0.135637
0.447608 0.566644 0.128313
0.459663 0.570794 0.119829
0.471733 0.576181 0.109987
0.483772 0.582895 0.0990005
0.495796 0.591119 0.0870069
0.507912 0.601022 0.0740063
0.520348 0.612634 0.0607004
0.533486 0.625528 0.0476844
0.547646 0.639216 0.0350652
0.56318 0.653117 0.0234989
0.58053 0.666896 0.0134585
0.600137 0.679805 0.00508125
0.62211 0.6916 0
0.646372 0.702342 0
0.672877 0.712764 0
0.701671 0.723507 0
0.73286 0.733684 0
0.765698 0.742214 0
0.79942 0.748745 0
0.833417 0.753246 0
0.867308 0.756008 0
0.900999 0.757397 0
0.934386 0.757748 0
0.966384 0.757473 0
0.996735 0.75671 0
0.387945 0.575143 0.191531
0.396765 0.577371 0.189517
0.405539 0.579309 0.186923
0.414786 0.581323 0.184085
0.424567 0.583337 0.180453
0.434821 0.585534 0.176165
0.44564 0.587961 0.171176
0.456962 0.590677 0.165408
0.468635 0.593851 0.158724
0.480705 0.597711 0.150851
0.492897 0.602564 0.141756
0.505043 0.608606 0.131136
0.517052 0.616175 0.119234
0.529015 0.625238 0.105867
0.541115 0.636118 0.0914626
0.553475 0.648417 0.0764172
0.566629 0.661952 0.0612497
0.580896 0.676051 0.0469825
0.596704 0.690349 0.0334478
0.61445 0.70425 0.0213626
0.634592 0.717281 0.0113375
0.657176 0.729015 0.00344854
0.682139 0.739681 0
0.709468 0.750134 0
0.738979 0.760433 0
0.770382 0.769924 0
0.803143 0.777646 0
0.83653 0.783383 0
0.870024 0.787076 0
0.90338 0.789166 0
0.936492 0.78999 0
0.967514 0.789914 0
0.996307 0.789166 0
0.408621 0.603098 0.219059
0.417487 0.605356 0.217304
0.426413 0.607477 0.215167
0.435691 0.609461 0.212497
0.445487 0.611658 0.209262
0.455726 0.61387 0.205524
0.466484 0.616312 0.201068
0.477836 0.618982 0.19588
0.48957 0.622095 0.18996
0.50164 0.625772 0.182834
0.513909 0.630228 0.174517
0.526177 0.635721 0.164736
0.538308 0.642588 0.153338
0.550332 0.65095 0.140291
0.56228 0.661006 0.125597
0.574212 0.672633 0.109468
0.586557 0.685725 0.0924544
0.599786 0.699748 0.0754559
0.614237 0.714351 0.058732
0.630365 0.728878 0.0430457
0.648661 0.742901 0.0289921
0.669367 0.755917 0.0170138
0.69276 0.767666 0.00801099
0.718639 0.778286 0.000961318
0.746822 0.788556 0
0.776822 0.798337 0
0.808423 0.806973 0
0.840986 0.813809 0
0.87396 0.818494 0
0.906813 0.821347 0
0.939513 0.822721 0
0.969192 0.82298 0
0.995773 0.822354 0
0.428977 0.632029 0.24715
0.437934 0.63444 0.245686
0.446921 0.636576 0.243793
0.45623 0.638712 0.241398
0.466026 0.640909 0.238605
0.47628 0.643259 0.235248
0.487068 0.645747 0.231296
0.498344 0.648478 0.226749
0.510079 0.65156 0.221378
