filter3.CUBE
TITLE "Generated by Resolve"
LUT_3D_SIZE 9
0 0.022446 0
0.0121309 0.0307622 0
0.126802 0.0379797 0
0.257328 0.0368505 0
0.389105 0.0330053 0
0.522499 0.0314488 0
0.661524 0.0310521 0
0.806073 0.0298161 0
0.95169 0.027039 0
0 0.0917067 0
0.0439612 0.102342 0
0.159854 0.116106 0
0.286503 0.120836 0
0.415579 0.119997 0
0.547173 0.119677 0
0.682933 0.122911 0
0.823209 0.128298 0
0.964706 0.1337 0
0.0145418 0.170932 0
0.0866407 0.179477 0
0.179522 0.20351 0
0.306264 0.231632 0
0.434958 0.238437 0
0.565713 0.240772 0
0.700175 0.243992 0
0.837919 0.249104 0
0.973327 0.25481 0
0.10428 0.254398 0
0.150347 0.262486 0
0.216159 0.286809 0
0.315328 0.328237 0
0.446921 0.363973 0
0.578302 0.372488 0
0.711925 0.375448 0
0.848539 0.377874 0
0.980285 0.380316 0
0.191241 0.347127 0
0.230289 0.354299 0
0.281376 0.373449 0
0.351049 0.414405 0
0.451362 0.461204 0
0.585382 0.495995 0
0.721889 0.504585 0
0.856764 0.505959 0
0.987732 0.506264 0
0.279988 0.445319 0.0659037
0.316915 0.452384 0.0493935
0.3626 0.465721 0.0226291
0.415152 0.50042 0
0.485496 0.54995 0
0.588937 0.595209 0
0.725048 0.625742 0
0.863188 0.631937 0
0.994385 0.631357 0
0.366812 0.548028 0.16466
0.403357 0.555993 0.1523
0.447608 0.566644 0.128313
0.495796 0.591119 0.0870069
0.547646 0.639216 0.0350652
0.62211 0.6916 0
0.73286 0.733684 0
0.867308 0.756008 0
0.996735 0.75671 0
0.448798 0.662058 0.275303
0.486107 0.671443 0.26804
0.530129 0.68246 0.252872
0.579828 0.700847 0.22356
0.628153 0.73843 0.165057
0.681407 0.796201 0.0807507
0.765881 0.849134 0.0168002
0.885527 0.883619 0
0.995712 0.890654 0
0.523217 0.796963 0.386389
0.560143 0.808698 0.382605
0.603174 0.823301 0.373663
0.65391 0.843 0.356939
0.708888 0.872175 0.320729
0.759121 0.919676 0.235492
0.816632 0.979782 0.0944533
0.908614 0.996277 0
0.999985 1 0
0 0.0312352 0
0.00602731 0.0361791 0
0.126833 0.0339666 0
0.259983 0.0272068 0
0.39205 0.0241398 0.00611887
0.525994 0.0241703 0.0149081
0.66479 0.0243839 0.0240482
0.807843 0.0242771 0.0342107
0.952636 0.0230259 0.0439918
0 0.10135 0.0134737
0.0209201 0.110262 0.0132601
0.154955 0.114061 0.0147402
0.291875 0.1075 0.0135653
0.422339 0.101411 0.0149691
0.552178 0.10312 0.0205539
0.68629 0.110613 0.029221
0.825147 0.119783 0.0393072
0.965682 0.128222 0.049134
0 0.178882 0.0201114
0.0440528 0.18793 0.0137636
0.165515 0.2065 0.0147402
0.308156 0.229664 0.0310216
0.441199 0.230747 0.0325017
0.572503 0.229953 0.0347448
0.705638 0.233555 0.0400854
0.841382 0.241459 0.0481117
0.975677 0.24686 0.0387274
0.0502632 0.259037 0.00888075
0.111376 0.267597 0.00216678
0.199237 0.289006 0
0.312703 0.3299 0.0103914
0.449668 0.364828 0.0424048
0.582162 0.370825 0.0496834
0.715846 0.372549 0.0541848
0.851255 0.375189 0.0598154
0.981979 0.377264 0.048249
0.157458 0.348516 0.0278019
0.20499 0.356634 0.0176547
0.267994 0.374548 0.0034638
0.34638 0.414405 0
0.451392 0.462989 0.0155032
0.587427 0.496971 0.0531777
0.723568 0.504173 0.0660716
0.858 0.505226 0.0697032
0.988495 0.505089 0.0598611
0.258656 0.445731 0.0922103
0.299962 0.453758 0.080415
0.352178 0.466972 0.0579995
0.410956 0.499428 0.0305791
0.484459 0.549859 0.0141146
0.589853 0.596933 0.0269322
0.726467 0.626368 0.0615396
0.863615 0.631617 0.0760052
0.994339 0.630808 0.0717174
0.352667 0.54905 0.184268
0.391699 0.557549 0.17435
0.439536 0.568597 0.155032
0.492515 0.591165 0.121172
0.547616 0.637598 0.0759594
0.622721 0.691737 0.0409705
0.734051 0.735164 0.0430762
0.868101 0.756405 0.0700999
0.996796 0.756344 0.0717479
0.438193 0.663691 0.293873
0.477287 0.673259 0.287312
0.523568 0.684688 0.273732
0.576516 0.702434 0.248798
0.628855 0.737743 0.201877
0.683619 0.794797 0.131273
0.767178 0.849531 0.0743114
0.886351 0.884779 0.0746624
0.99617 0.890898 0.036408
0.514717 0.799298 0.409964
0.552361 0.810559 0.406165
0.596857 0.825299 0.39765
0.649897 0.845212 0.382055
0.70837 0.87332 0.351064
0.762463 0.918791 0.282582
0.819226 0.979141 0.147417
0.909072 0.997269 0
1 1 0
0 0.0460365 0.0134737
0 0.0519417 0.0548714
0.108614 0.0515297 0.0598611
0.242145 0.039704 0.071046
0.380499 0.0277409 0.0874189
0.518166 0.0223392 0.104692
0.658473 0.0207523 0.121813
0.802029 0.019913 0.139132
0.947097 0.018143 0.15584
0 0.115816 0.0723125
0 0.126085 0.0877241
0.12343 0.125154 0.0942245
0.274556 0.113375 0.10074
0.413291 0.0978866 0.106432
0.546853 0.0934005 0.11664
0.681788 0.0995041 0.130922
0.820829 0.109377 0.147417
0.96202 0.119951 0.163989
0 0.192996 0.10486
0 0.20383 0.11133
0.126299 0.214832 0.114534
0.294697 0.229969 0.136049
0.438651 0.227924 0.142596
0.573343 0.222721 0.145678
0.706676 0.223316 0.152224
0.841459 0.230945 0.163149
0.981567 0.220691 0.132265
0 0.271473 0.106889
0.0339971 0.280812 0.106386
0.148501 0.296254 0.105776
0.295415 0.33019 0.123613
0.447913 0.365194 0.166873
0.583337 0.369039 0.17258
0.717952 0.369024 0.175784
0.852979 0.37113 0.18172
0.986923 0.369284 0.151644
0.0754864 0.353155 0.106889
0.131853 0.361852 0.103334
0.220432 0.376822 0.0967575
0.324468 0.41088 0.0974594
0.444236 0.461494 0.125887
0.587976 0.497993 0.178973
0.724346 0.503426 0.191058
0.858961 0.504067 0.195102
0.990921 0.502632 0.172152
0.200702 0.444953 0.140002
0.250019 0.454078 0.134752
0.318257 0.467628 0.123003
0.393133 0.495521 0.107088
0.476188 0.544793 0.0987869
0.587106 0.596643 0.124422
0.727138 0.626993 0.18233
0.863966 0.631205 0.203754
0.994842 0.629969 0.193408
0.318975 0.54786 0.210544
0.362463 0.557412 0.20473
0.418662 0.569665 0.191455
0.481102 0.590433 0.16846
0.543801 0.633478 0.136904
0.621592 0.689723 0.111055
0.734234 0.736248 0.129824
0.868696 0.75671 0.185626
0.997223 0.755627 0.194797
0.4168 0.663615 0.313939
0.457786 0.673564 0.309209
0.508431 0.68603 0.298421
0.566949 0.703548 0.278859
0.625956 0.735821 0.244724
0.684703 0.791241 0.193317
0.768063 0.848508 0.150729
0.886992 0.88571 0.165286
0.997238 0.891005 0.120195
0.500648 0.800305 0.43331
0.539101 0.81146 0.429847
0.58526 0.826307 0.422019
0.641215 0.84651 0.407843
0.704448 0.873915 0.382147
0.764675 0.91635 0.33051
0.8206 0.977325 0.180056
0.9093 0.999207 0
1 1 0.00854505
0 0.0680705 0.0682841
0 0.0781262 0.107378
0.094728 0.0800946 0.130816
0.21033 0.0789502 0.134356
0.349248 0.0583963 0.158572
0.495186 0.0361181 0.187015
0.642023 0.0247959 0.214252
0.790005 0.0200504 0.240589
0.938231 0.0174411 0.265278
0 0.132021 0.122835
0 0.143313 0.142763
0.0867323 0.147738 0.17052
0.234653 0.140139 0.169512
0.380514 0.120256 0.186206
0.524132 0.101427 0.206226
0.666651 0.0958572 0.228168
0.810239 0.102037 0.252064
0.955825 0.114733 0.27686
0 0.211078 0.176806
0 0.223392 0.193729
0.0755322 0.234028 0.205997
0.255146 0.237476 0.215946
0.416709 0.233585 0.236728
0.560327 0.222263 0.248905
0.698955 0.215717 0.260227
0.836393 0.220752 0.275456
0.983795 0.18381 0.271916
0 0.297658 0.212833
0 0.308537 0.222095
0.0869001 0.319371 0.228672
0.261494 0.337301 0.238849
0.433295 0.362676 0.276326
0.578576 0.366705 0.291249
0.716899 0.365393 0.298299
0.852735 0.366949 0.306004
0.991943 0.358816 0.291234
0 0.3794 0.22385
0.0405585 0.387442 0.226444
0.142596 0.396262 0.226383
0.280888 0.416648 0.231281
0.428336 0.459281 0.259022
0.585138 0.497414 0.3122
0.723415 0.502159 0.320974
0.859129 0.502861 0.325353
0.994186 0.49926 0.31043
0.107836 0.460655 0.235706
0.160815 0.467903 0.235233
0.244526 0.477806 0.231968
0.344808 0.496254 0.229496
0.452186 0.536599 0.236316
0.578073 0.592157 0.267597
0.726345 0.626993 0.322164
0.86363 0.63061 0.336217
0.996231 0.628733 0.32282
0.243778 0.552666 0.274022
0.290379 0.561135 0.272511
0.35848 0.572976 0.267369
0.438041 0.589929 0.259297
0.519631 0.62327 0.250172
0.609491 0.677806 0.246891
0.728511 0.732235 0.27274
0.867399 0.755886 0.324178
0.998093 0.754391 0.328328
0.366506 0.664469 0.352041
0.408469 0.673671 0.349737
0.466072 0.686305 0.343435
0.535027 0.703517 0.332433
0.60734 0.730755 0.314626
0.678019 0.780468 0.28983
0.765087 0.840787 0.270268
0.885023 0.883864 0.291737
0.999741 0.89015 0.214878
0.47216 0.8009 0.461372
0.511879 0.811551 0.458686
0.560739 0.826139 0.452094
0.620737 0.846159 0.440635
0.690684 0.872908 0.42211
0.76144 0.911803 0.388861
0.820249 0.972869 0.225849
0.909117 1 0
1 1 0.232395
0 0.0922866 0.120378
0.00502022 0.103059 0.150393
0.0859846 0.105638 0.190738
0.194263 0.112596 0.199619
0.309331 0.112871 0.20676
0.452079 0.0883192 0.24564
0.607385 0.0579232 0.288548
0.76524 0.0349889 0.327962
0.921767 0.0234684 0.363714
0 0.149722 0.169207
0 0.160998 0.187839
0.0648508 0.171435 0.212543
0.207797 0.171481 0.239429
0.334752 0.163134 0.239155
0.478218 0.141634 0.270268
0.631403 0.120134 0.307012
0.786877 0.110536 0.34287
0.942367 0.117388 0.378897
0 0.226261 0.228641
0 0.239536 0.249134
0.0383459 0.253254 0.267948
0.212451 0.26125 0.293828
0.370642 0.255879 0.294911
0.521385 0.240635 0.321645
0.670695 0.224933 0.347356
0.818784 0.220371 0.372961
0.974853 0.208804 0.394385
0 0.323598 0.296391
0 0.337057 0.313161
0.0444495 0.349569 0.327993
0.219669 0.361715 0.338643
0.397147 0.370245 0.351919
0.556298 0.371145 0.381888
0.703487 0.365164 0.400793
0.84535 0.363287 0.416037
0.991485 0.352605 0.419089
0 0.421408 0.343496
0 0.431052 0.352483
0.0899214 0.4383 0.357778
0.239109 0.446296 0.360616
0.403052 0.467552 0.373739
0.56939 0.494499 0.415091
0.716472 0.49987 0.435554
0.856657 0.499931 0.446235
0.993713 0.4963 0.445563
0.0471046 0.5037 0.361517
0.0936141 0.508736 0.363302
0.174426 0.513085 0.362219
0.285374 0.519768 0.361349
0.415793 0.541787 0.36759
0.562966 0.588312 0.396841
0.722423 0.625498 0.451377
0.86215 0.629511 0.462409
0.995773 0.627619 0.459922
0.17525 0.581094 0.37557
0.217945 0.586862 0.376043
0.285084 0.593896 0.374609
0.371832 0.603708 0.373327
0.473121 0.623941 0.37435
0.585336 0.667979 0.384543
0.719173 0.726146 0.414755
0.865873 0.754849 0.459739
0.997772 0.753872 0.467323
0.305318 0.681086 0.423026
0.345418 0.688548 0.423163
0.403845 0.698543 0.421073
0.478141 0.712306 0.417853
0.563973 0.733074 0.414267
0.654521 0.771939 0.41062
0.755581 0.829999 0.412238
0.881483 0.880171 0.430014
1 0.888395 0.42472
0.427527 0.811749 0.509255
0.468345 0.821683 0.508293
0.519326 0.834791 0.50457
0.582757 0.852567 0.498344
0.65507 0.87805 0.478202
0.734051 0.914992 0.423575
0.810544 0.96997 0.295445
0.909499 1 0.274159
1 1 0.406165
0 0.116762 0.167941
0.0227817 0.127184 0.193912
0.0830396 0.132418 0.248005
0.190356 0.139101 0.262684
0.296986 0.14873 0.268727
0.407187 0.150896 0.280476
0.554818 0.127077 0.334066
0.7205 0.094255 0.392767
0.888487 0.0647746 0.445167
0 0.170703 0.21471
0 0.181842 0.232654
0.0624552 0.194461 0.258671
0.191562 0.200717 0.30341
0.317891 0.202014 0.306264
0.430747 0.194461 0.308858
0.577173 0.175998 0.355932
0.74168 0.157946 0.411261
0.908537 0.152911 0.463996
0 0.242206 0.274891
0 0.255467 0.294255
0.0240482 0.270268 0.314794
0.178454 0.287266 0.339086
0.342138 0.289006 0.364874
0.469505 0.278538 0.363653
0.617197 0.260258 0.401434
0.776013 0.248951 0.446174
0.936568 0.258824 0.493141
0 0.340642 0.352499
0 0.355306 0.372
0.014847 0.370016 0.39118
0.181476 0.38497 0.406592
0.358251 0.395331 0.428443
0.509468 0.392569 0.43241
0.662806 0.380789 0.466789
0.816312 0.372641 0.500221
0.983856 0.355749 0.522332
0 0.452293 0.432425
0 0.464149 0.44625
0.0628519 0.474662 0.458198
0.213214 0.483162 0.465476
0.372229 0.494301 0.472862
0.534707 0.504341 0.486824
0.692622 0.505425 0.522087
0.842664 0.501045 0.546853
0.993301 0.493385 0.559289
0.0311284 0.552056 0.481956
0.0703899 0.558145 0.487327
0.143496 0.563363 0.490959
0.255909 0.567361 0.492103
0.388067 0.574014 0.492882
0.540887 0.596765 0.506966
0.705486 0.623804 0.549874
0.862501 0.62623 0.566629
0.995346 0.625467 0.580255
0.14583 0.631067 0.499641
0.181979 0.635767 0.501961
0.238788 0.640238 0.502907
0.32166 0.644114 0.503029
0.426246 0.650507 0.503059
0.552102 0.673884 0.510445
0.702327 0.721813 0.539681
0.866621 0.753063 0.574914
0.997391 0.754757 0.5906
0.263081 0.719234 0.526604
0.297505 0.725124 0.528328
0.348287 0.731685 0.529061
0.417777 0.739788 0.5299
0.50547 0.75169 0.531777
0.610391 0.775509 0.535714
0.73109 0.822538 0.545998
0.875593 0.877043 0.527047
0.999542 0.887694 0.581445
0.383169 0.838849 0.58584
0.421424 0.847379 0.587228
0.469917 0.858076 0.587884
0.498741 0.878889 0.564141
0.562509 0.9028 0.533532
0.671656 0.927901 0.520974
0.785519 0.966354 0.506188
0.903441 1 0.506355
1 1 0.571832
0.00764477 0.141833 0.213947
0.0437781 0.153826 0.23949
0.0877241 0.163363 0.296345
0.187167 0.173877 0.324727
0.300893 0.182101 0.337285
0.400809 0.191546 0.342016
0.508247 0.196277 0.35906
0.660441 0.173236 0.425559
0.830594 0.14052 0.497795
0 0.194827 0.262119
0.0222324 0.205798 0.279286
0.0758221 0.220279 0.305119
0.179248 0.232319 0.36466
0.317876 0.239002 0.377279
0.423224 0.239139 0.375296
0.530312 0.235981 0.384375
0.681727 0.222889 0.447364
0.847196 0.215488 0.518257
0 0.262455 0.321019
0 0.274586 0.337209
0.0379034 0.289281 0.357137
0.160937 0.310307 0.385306
0.324254 0.321004 0.431205
0.450874 0.31986 0.430259
0.56408 0.308309 0.431128
0.713878 0.296651 0.485267
0.879377 0.303975 0.55317
0 0.357427 0.401312
0 0.371649 0.420172
0.0138247 0.384939 0.437675
0.155169 0.40148 0.456382
0.323079 0.42063 0.477134
0.478111 0.423239 0.4981
0.606561 0.415335 0.500191
0.759167 0.402792 0.54699
0.915572 0.404288 0.59939
0 0.470527 0.492103
0 0.483635 0.508339
0.04654 0.494347 0.521355
0.188724 0.50544 0.532418
0.340917 0.519051 0.542916
0.496742 0.529076 0.558267
0.642725 0.527352 0.566522
0.797742 0.518196 0.608087
0.968292 0.503349 0.643931
0.0188449 0.583154 0.570138
0.0589609 0.590738 0.578546
0.129717 0.598489 0.586862
0.24329 0.606821 0.594232
0.373663 0.613581 0.597986
0.514595 0.623224 0.602853
0.668528 0.634638 0.618708
0.841184 0.631296 0.653803
0.987655 0.628748 0.683543
0.143389 0.679072 0.615259
0.175174 0.685145 0.620554
0.222812 0.691646 0.625895
0.302785 0.697932 0.630411
0.408911 0.701106 0.63064
0.530556 0.707317 0.631067
0.677562 0.730709 0.646372
0.852628 0.754055 0.6766
0.99707 0.758144 0.705257
0.25008 0.77229 0.648463
0.279866 0.778347 0.652308
0.321889 0.78468 0.655833
0.384848 0.790997 0.65919
0.470069 0.796597 0.66154
0.572137 0.8056 0.662821
0.683803 0.836332 0.649088
0.855619 0.875364 0.67097
0.99913 0.889891 0.720745
0.354788 0.882704 0.692851
0.389609 0.890181 0.696468
0.416571 0.901289 0.697322
0.425086 0.918959 0.688609
0.491035 0.934462 0.682445
0.60618 0.949126 0.682673
0.737789 0.973007 0.682536
0.880186 1 0.689876
1 1 0.735546
0.032929 0.169299 0.261143
0.0660716 0.182528 0.286213
0.107393 0.198032 0.324071
0.184176 0.210513 0.384787
0.308324 0.221302 0.40737
0.411994 0.232349 0.414389
0.505013 0.243977 0.420478
0.609918 0.250324 0.44239
0.758663 0.224842 0.516823
0.0272831 0.221439 0.310338
0.0557259 0.232746 0.327276
0.0982681 0.248707 0.353048
0.181476 0.267506 0.394125
0.317067 0.27776 0.444205
0.432685 0.283452 0.450141
0.527657 0.286763 0.449821
0.632975 0.290852 0.467903
0.773709 0.284535 0.538323
0 0.285344 0.365408
0.0204166 0.29633 0.379416
0.0697948 0.311437 0.399451
0.160021 0.333379 0.429526
0.306569 0.351537 0.489158
0.447684 0.357733 0.499916
0.551797 0.355505 0.494881
0.659678 0.352941 0.505302
0.807065 0.359579 0.577539
0 0.377997 0.449714
0 0.388846 0.463142
0.0492561 0.400488 0.478523
0.150301 0.417563 0.49929
0.299474 0.440757 0.523735
0.458656 0.450477 0.561227
0.581567 0.451469 0.559777
0.698421 0.446967 0.567071
0.843351 0.448997 0.62948
0 0.487892 0.543832
0 0.497826 0.556176
0.0653849 0.506981 0.567559
0.174838 0.519097 0.581155
0.314382 0.53521 0.595575
0.464179 0.551629 0.609079
0.608087 0.554604 0.626322
0.735775 0.551385 0.63418
0.906203 0.535241 0.689372
0.0169528 0.600809 0.630259
0.063035 0.608255 0.639094
0.127764 0.616785 0.649363
0.23006 0.627543 0.660212
0.35462 0.638117 0.668299
0.488258 0.649302 0.674556
0.629267 0.658564 0.684962
0.780758 0.656046 0.701045
0.937453 0.64947 0.745022
0.148043 0.70779 0.699992
0.177554 0.715312 0.707973
0.218311 0.724193 0.717525
0.29369 0.734554 0.727718
0.402274 0.742916 0.734112
0.522026 0.748363 0.735912
0.649821 0.758038 0.741451
0.808331 0.768277 0.756313
0.967483 0.770932 0.796719
0.25391 0.817166 0.759121
0.28069 0.824552 0.765545
0.315068 0.832929 0.772793
0.370825 0.842176 0.780713
0.457496 0.850111 0.786816
0.535622 0.859678 0.788968
0.655344 0.869139 0.78819
0.822858 0.885893 0.799588
0.991699 0.900511 0.838407
0.316381 0.937453 0.816098
0.313649 0.948272 0.820783
0.295598 0.963119 0.825193
0.342626 0.974823 0.829313
0.44387 0.982376 0.833387
0.564263 0.988907 0.836408
0.698421 0.998138 0.838972
0.850217 1 0.846525
1 1 0.881895
0.0583352 0.198856 0.309255
0.0900587 0.212589 0.333806
0.130312 0.230076 0.365301
0.189319 0.242756 0.437034
0.310521 0.260334 0.464515
0.424384 0.274662 0.483131
0.51664 0.289494 0.489738
0.603159 0.302998 0.498863
0.697261 0.307683 0.521614
0.0620127 0.250751 0.360204
0.0893111 0.262287 0.377203
0.127489 0.278309 0.401816
0.19588 0.297368 0.436576
0.318273 0.312535 0.500587
0.442939 0.324971 0.517983
0.539406 0.336217 0.522118
0.628443 0.347066 0.52842
0.715206 0.35555 0.546212
0.0356909 0.309697 0.408911
0.0659953 0.320989 0.422965
0.107042 0.336721 0.443137
0.177646 0.357168 0.472984
0.305135 0.379995 0.521324
0.446296 0.39118 0.560143
0.554253 0.399084 0.56321
0.64892 0.405753 0.564355
0.745953 0.419059 0.585229
0.00834669 0.396689 0.491157
0.0479591 0.40621 0.502815
0.0967575 0.418524 0.5187
0.170153 0.435508 0.539498
0.29514 0.459678 0.565255
0.443656 0.475303 0.615808
0.573175 0.483101 0.621393
0.677302 0.488197 0.620569
0.778698 0.498833 0.637522
0.0043946 0.501808 0.585626
0.0526894 0.509773 0.595209
0.107485 0.519524 0.607446
0.184771 0.53225 0.622553
0.305348 0.54934 0.639109
0.445747 0.569085 0.655161
0.588373 0.578012 0.684749
0.705104 0.583291 0.685863
0.831205 0.581323 0.706264
0.059205 0.611795 0.676722
0.0988632 0.61944 0.685985
0.149889 0.62855 0.697154
0.231052 0.639857 0.70927
0.343114 0.652384 0.719844
0.469306 0.665919 0.728496
0.599832 0.680217 0.739742
0.740612 0.682155 0.763897
0.86804 0.684321 0.775616
0.154101 0.724315 0.75993
0.183001 0.732586 0.769528
0.220447 0.742336 0.781338
0.287846 0.754208 0.7944
0.390875 0.765759 0.804364
0.507515 0.775082 0.81001
0.603342 0.78941 0.829862
0.759533 0.793759 0.834592
0.902235 0.798489 0.849607
0.260548 0.843793 0.843976
0.286671 0.852064 0.85275
0.31722 0.861936 0.863569
0.365499 0.87393 0.876646
0.428687 0.888609 0.891829
0.480903 0.905806 0.909895
0.6365 0.908095 0.91043
0.790494 0.910994 0.912932
0.941222 0.918059 0.929213
0.151797 0.986862 0.937224
0.156161 0.998184 0.946746
0.219791 1 0.955886
0.312016 1 0.964858
0.423529 1 0.973022
0.548913 1 0.979461
0.684428 1 0.984222
0.829618 1 0.9879
0.977401 1 1
